img/hero/Icon_Get_Money.svg

<svg width="22" height="22" viewBox="0 0 22 22" fill="none" xmlns="http://www.w3.org/2000/svg">
<path fill-rule="evenodd" clip-rule="evenodd" d="M11.663 12.6181C12.1854 11.483 11.7039 10.5478 10.3738 9.96856L8.17014 9.05866C7.45622 8.7639 6.6382 8.88538 6.04058 9.37489L4.01398 11.0349L3.95505 11.6259L3.86011 16.4599V17.2999H6.31206L11.3127 18.7208C11.9436 18.9 12.6219 18.7738 13.1462 18.3797C16.4412 15.9031 18.6427 14.2307 18.9761 13.9207C19.7844 13.1692 20.1026 12.3336 19.5267 11.51C19.0612 10.8442 18.2761 10.7732 17.3031 11.2137L12.5707 13.6205L11.24 13.1974C11.4116 13.0494 11.5531 12.8568 11.663 12.6181Z" fill="#1565D8"/>
<path opacity="0.3" fill-rule="evenodd" clip-rule="evenodd" d="M16.2107 3.86094H15.2001V3.65048C15.2001 3.30234 14.918 3.02002 14.5701 3.02002C14.2221 3.02002 13.9401 3.30234 13.9401 3.65048V3.86094H13.7418C12.9299 3.86094 12.2718 4.51975 12.2718 5.33232V5.75342C12.2718 6.56599 12.9299 7.2248 13.7418 7.2248H15.4101C15.526 7.2248 15.6201 7.31897 15.6201 7.43526V7.85508C15.6201 7.97137 15.526 8.06554 15.4101 8.06554H13.4824C13.3892 7.84436 13.1736 7.68807 12.9209 7.68038C12.5731 7.66979 12.2826 7.9434 12.2721 8.29139L12.2604 8.67685C12.2496 9.03233 12.5346 9.32646 12.8901 9.32646H13.9401V9.52956C13.9401 9.8777 14.2221 10.16 14.5701 10.16C14.918 10.16 15.2001 9.8777 15.2001 9.52956V9.32646H15.4101C16.222 9.32646 16.8801 8.66765 16.8801 7.85508V7.43526C16.8801 6.62269 16.222 5.96388 15.4101 5.96388H13.7418C13.6258 5.96388 13.5318 5.8697 13.5318 5.75342V5.33232C13.5318 5.21604 13.6258 5.12186 13.7418 5.12186H15.6631C15.7726 5.31404 15.979 5.44018 16.2107 5.44018C16.5587 5.44018 16.8407 5.15786 16.8407 4.80972V4.4914C16.8407 4.14326 16.5587 3.86094 16.2107 3.86094ZM3.44006 9.95002H3.65006V17.93H3.44006C3.09212 17.93 2.81006 18.2121 2.81006 18.56C2.81006 18.908 3.09212 19.19 3.44006 19.19H4.28006C4.628 19.19 4.91006 18.908 4.91006 18.56V9.32002C4.91006 8.97208 4.628 8.69002 4.28006 8.69002H3.44006C3.09212 8.69002 2.81006 8.97208 2.81006 9.32002C2.81006 9.66796 3.09212 9.95002 3.44006 9.95002Z" fill="#1565D8"/>
</svg>

<svg width="22" height="22" fill="none" xmlns="http://www.w3.org/2000/svg"><path fill-rule="evenodd" clip-rule="evenodd" d="M11.663 12.618c.522-1.135.04-2.07-1.29-2.65l-2.203-.91a2.097 2.097 0 00-2.13.317l-2.026 1.66-.059.59-.095 4.835v.84h2.452l5 1.42c.632.18 1.31.054 1.834-.34 3.295-2.477 5.497-4.15 5.83-4.46.808-.75 1.127-1.586.55-2.41-.465-.666-1.25-.737-2.223-.296l-4.732 2.406-1.331-.423c.172-.148.313-.34.423-.579z" fill="#1565D8"/><path opacity=".3" fill-rule="evenodd" clip-rule="evenodd" d="M16.21 3.86H15.2v-.21a.63.63 0 10-1.26 0v.21h-.198a1.47 1.47 0 00-1.47 1.472v.421a1.47 1.47 0 001.47 1.472h1.668a.21.21 0 01.21.21v.42a.21.21 0 01-.21.21h-1.928a.63.63 0 00-1.21.226l-.012.386a.63.63 0 00.63.65h1.05v.203a.63.63 0 101.26 0v-.204h.21a1.47 1.47 0 001.47-1.47v-.42a1.47 1.47 0 00-1.47-1.472h-1.668a.21.21 0 01-.21-.21v-.422a.21.21 0 01.21-.21h1.921a.63.63 0 001.178-.312V4.49a.63.63 0 00-.63-.63zM3.44 9.95h.21v7.98h-.21a.63.63 0 000 1.26h.84a.63.63 0 00.63-.63V9.32a.63.63 0 00-.63-.63h-.84a.63.63 0 100 1.26z" fill="#1565D8"/></svg>
